assets/img/braze_icons/credit-card-02.svg

<svg fill="none" height="24" viewBox="0 0 24 24" width="24" xmlns="http://www.w3.org/2000/svg"><g fill="#801ed7"><path d="m18.8385 4h-13.67704c-.52711-.00002-.98193-.00003-1.35648.03057-.39535.0323-.78857.10362-1.16695.29641-.56448.28762-1.02343.74657-1.31105 1.31105-.19279.37838-.26411.7716-.29641 1.16695-.030598.37454-.030585.8293-.03057 1.3564 0 .46314.37545.83862.83859.83862h20.32281c.4632 0 .8386-.37544.8386-.83856 0-.52714 0-.9819-.0306-1.35646-.0323-.39535-.1036-.78857-.2964-1.16695-.2876-.56448-.7465-1.02342-1.311-1.31104-.3784-.1928-.7716-.26411-1.167-.29642-.3745-.0306-.8293-.03058-1.3565-.03057z"/><path clip-rule="evenodd" d="m1.54601 11.109c.21391-.109.49394-.109 1.05399-.109h18.8c.5601 0 .8401 0 1.054.109.1882.0959.3411.2488.437.437.109.2139.109.494.109 1.054v3.2386c0 .5271 0 .9819-.0306 1.3564-.0323.3954-.1036.7886-.2964 1.167-.2876.5645-.7465 1.0234-1.311 1.311-.3784.1928-.7716.2641-1.167.2964-.3745.0306-.8293.0306-1.3564.0306h-13.67731c-.52705 0-.9818 0-1.35631-.0306-.39535-.0323-.78857-.1036-1.16695-.2964-.56448-.2876-1.02343-.7465-1.31105-1.311-.19279-.3784-.26411-.7716-.29641-1.167-.030598-.3745-.030585-.8293-.03057-1.3564v-3.2386c0-.5601 0-.8401.10899-1.054.09588-.1882.24886-.3411.43702-.437zm4.45399 2.891c-.55228 0-1 .4477-1 1s.44772 1 1 1h5c.5523 0 1-.4477 1-1s-.4477-1-1-1z" fill-rule="evenodd"/></g></svg>

<svg width="24" height="24" viewBox="0 0 24 24" fill="none" xmlns="http://www.w3.org/2000/svg">
<path d="M18.8385 4L5.16146 4C4.63435 3.99998 4.17953 3.99997 3.80498 4.03057C3.40963 4.06287 3.01641 4.13419 2.63803 4.32698C2.07355 4.6146 1.6146 5.07355 1.32698 5.63803C1.13419 6.01641 1.06287 6.40963 1.03057 6.80498C0.999972 7.17952 0.999985 7.63428 1 8.16138C1 8.62452 1.37545 9 1.83859 9H22.1614C22.6246 9 23 8.62456 23 8.16144C23 7.6343 23 7.17954 22.9694 6.80498C22.9371 6.40963 22.8658 6.01641 22.673 5.63803C22.3854 5.07355 21.9265 4.61461 21.362 4.32699C20.9836 4.13419 20.5904 4.06288 20.195 4.03057C19.8205 3.99997 19.3657 3.99999 18.8385 4Z" fill="#801ED7"/>
<path fill-rule="evenodd" clip-rule="evenodd" d="M1.54601 11.109C1.75992 11 2.03995 11 2.6 11H21.4C21.9601 11 22.2401 11 22.454 11.109C22.6422 11.2049 22.7951 11.3578 22.891 11.546C23 11.7599 23 12.04 23 12.6V15.8386C23 16.3657 23 16.8205 22.9694 17.195C22.9371 17.5904 22.8658 17.9836 22.673 18.362C22.3854 18.9265 21.9265 19.3854 21.362 19.673C20.9836 19.8658 20.5904 19.9371 20.195 19.9694C19.8205 20 19.3657 20 18.8386 20L5.16129 20C4.63424 20 4.17949 20 3.80498 19.9694C3.40963 19.9371 3.01641 19.8658 2.63803 19.673C2.07355 19.3854 1.6146 18.9265 1.32698 18.362C1.13419 17.9836 1.06287 17.5904 1.03057 17.195C0.999972 16.8205 0.999985 16.3657 1 15.8386V12.6C1 12.0399 1 11.7599 1.10899 11.546C1.20487 11.3578 1.35785 11.2049 1.54601 11.109ZM6 14C5.44772 14 5 14.4477 5 15C5 15.5523 5.44772 16 6 16H11C11.5523 16 12 15.5523 12 15C12 14.4477 11.5523 14 11 14H6Z" fill="#801ED7"/>
</svg>
